third_party/noto/noto_2/emoji_u1f6c3.svg

<svg enable-background="new 0 0 128 128" version="1.1" viewBox="0 0 128 128" xmlns="http://www.w3.org/2000/svg"><path d="m116 4h-104c-4.42 0-8 3.58-8 8v104c0 4.42 3.58 8 8 8h104c4.42 0 8-3.58 8-8v-104c0-4.42-3.58-8-8-8z" fill="#194FA5"/><path d="m109.7 4h-98.2c-4.13 0.03-7.47 3.37-7.5 7.5v97.9c-0.01 4.14 3.34 7.49 7.48 7.5h0.02 98.1c4.14 0.01 7.49-3.34 7.5-7.48v-0.02-97.9c0.09-4.05-3.13-7.41-7.18-7.5h-0.22z" fill="#2262DD"/><path d="m39.7 12.9c0-2.3-1.6-3-10.8-2.7-7.7 0.3-11.5 1.2-13.8 4-1.9 2.3-2.3 5.6-2.6 8.4-0.2 2.2-2.2 15.9 3.5 12.2 0.68-0.45 1.23-1.07 1.6-1.8 1.2-2.1 1.9-4.5 3.3-6.6 5.3-8.6 18.8-10.5 18.8-13.5z" fill="#68ABE6"/><g opacity=".2"><polygon points="97 64.4 97.3 64 97 64" fill="#424242"/></g><path d="m65.4 21.2c-1.1-1.23-1-3.13 0.24-4.24 0.54-0.48 1.24-0.76 1.96-0.76h31.4c1.1 0 2 0.9 2 2v5.1c0 1.1-0.9 2-2 2h-26.9c-3.6 0-6.7-4.1-6.7-4.1z" fill="#FAFAFA"/><path d="m96 112h-26c-0.52 0.03-0.97-0.36-1-0.88v-0.12-6c-0.03-0.52 0.36-0.97 0.88-1h0.12 26c0.52-0.03 0.97 0.36 1 0.88v0.12 6c0.03 0.52-0.36 0.97-0.88 1h-0.12z" fill="#FAFAFA"/><path d="m101 30c0-1.1-0.9-2-2-2h-27.9c-0.82 0.02-1.64 0.19-2.4 0.5l-4.3 1.9c-0.94 0.58-1.23 1.81-0.65 2.75 0.37 0.6 1.04 0.96 1.75 0.95h4.5c0.55 0 1 0.44 1.01 0.99 0 0.04 0 0.07-0.01 0.11v0.9c0 8.28 6.72 15 15 15s15-6.72 15-15v-6.1z" fill="#FAFAFA"/><path d="m69.1 73.2v13.8c0 0.55 0.45 1 1 1 0.31 0 0.61-0.15 0.8-0.4l22.6-27.6c0.5-0.7 1.8-4-0.8-4h-16.6c-2.58 0.02-5.08 0.9-7.1 2.5-0.52 0.42-0.98 0.88-1.4 1.4l-14.3 13.9c-0.98 0.91-2.27 1.41-3.6 1.4h-15.3c-2.73-0.02-5.04 2-5.4 4.7-0.3 2.83 1.76 5.37 4.59 5.67 0.17 0.02 0.34 0.03 0.51 0.03h20.7c1.4-0.02 2.73-0.59 3.7-1.6l6.5-6.6c0-0.1 4.1-4.2 4.1-4.2z" fill="#FAFAFA"/><path d="m103.2 59.4c-0.18-0.17-0.38-0.3-0.6-0.4-0.45-0.29-1.05-0.21-1.4 0.2l-31.9 39.2c-0.33 0.44-0.24 1.07 0.2 1.4 0.17 0.13 0.38 0.2 0.6 0.2h26.9v-27c0-0.55 0.45-1 1-1s1 0.45 1 1v33.8c-0.03 2.62 1.9 4.85 4.5 5.2 2.75 0.28 5.2-1.73 5.47-4.47 0.02-0.17 0.03-0.35 0.03-0.53v-35.6c0.02-4.68-2.12-9.11-5.8-12z" fill="#FAFAFA"/><path d="m23.3 106v-3.4c0-0.5 0.4-0.9 0.9-0.9h35.8c0.55 0 1 0.45 1 1v3.3c0 3.31-2.69 6-6 6h-25.7c-3.31 0-6-2.69-6-6z" fill="#FAFAFA"/><path d="m22.4 101.7h-3.4c-3.31 0-6-2.69-6-6v-25.7c0-3.31 2.69-6 6-6h3.3c0.55 0 1 0.45 1 1v35.9c-0.04 0.46-0.44 0.81-0.9 0.8z" fill="#FAFAFA"/></svg>

<?xml version="1.0" encoding="utf-8"?>
<!-- Generator: Adobe Illustrator 25.2.3, SVG Export Plug-In . SVG Version: 6.00 Build 0)  -->
<svg version="1.1" id="Layer_2" xmlns="http://www.w3.org/2000/svg" xmlns:xlink="http://www.w3.org/1999/xlink" x="0px" y="0px"
	 viewBox="0 0 128 128" style="enable-background:new 0 0 128 128;" xml:space="preserve">
<g>
	<path style="fill:#194FA5;" d="M116,4H12c-4.42,0-8,3.58-8,8v104c0,4.42,3.58,8,8,8h104c4.42,0,8-3.58,8-8V12
		C124,7.58,120.42,4,116,4z"/>
	<path style="fill:#2262DD;" d="M109.7,4H11.5C7.37,4.03,4.03,7.37,4,11.5v97.9c-0.01,4.14,3.34,7.49,7.48,7.5c0.01,0,0.01,0,0.02,0
		h98.1c4.14,0.01,7.49-3.34,7.5-7.48c0-0.01,0-0.01,0-0.02V11.5c0.09-4.05-3.13-7.41-7.18-7.5C109.85,4,109.77,4,109.7,4z"/>
	<path style="fill:#68ABE6;" d="M39.7,12.9c0-2.3-1.6-3-10.8-2.7c-7.7,0.3-11.5,1.2-13.8,4c-1.9,2.3-2.3,5.6-2.6,8.4
		c-0.2,2.2-2.2,15.9,3.5,12.2c0.68-0.45,1.23-1.07,1.6-1.8c1.2-2.1,1.9-4.5,3.3-6.6C26.2,17.8,39.7,15.9,39.7,12.9z"/>
	<g style="opacity:0.2;">
		<polygon style="fill:#424242;" points="97,64.4 97.3,64 97,64 		"/>
	</g>
	<path style="fill:#FAFAFA;" d="M65.4,21.2c-1.1-1.23-1-3.13,0.24-4.24c0.54-0.48,1.24-0.76,1.96-0.76H99c1.1,0,2,0.9,2,2v5.1
		c0,1.1-0.9,2-2,2H72.1C68.5,25.3,65.4,21.2,65.4,21.2z"/>
	<path style="fill:#FAFAFA;" d="M96,112H70c-0.52,0.03-0.97-0.36-1-0.88c0-0.04,0-0.08,0-0.12v-6c-0.03-0.52,0.36-0.97,0.88-1
		c0.04,0,0.08,0,0.12,0h26c0.52-0.03,0.97,0.36,1,0.88c0,0.04,0,0.08,0,0.12v6c0.03,0.52-0.36,0.97-0.88,1
		C96.08,112,96.04,112,96,112z"/>
	<path style="fill:#FAFAFA;" d="M101,30c0-1.1-0.9-2-2-2H71.1c-0.82,0.02-1.64,0.19-2.4,0.5l-4.3,1.9
		c-0.94,0.58-1.23,1.81-0.65,2.75c0.37,0.6,1.04,0.96,1.75,0.95H70c0.55,0,1,0.44,1.01,0.99c0,0.04,0,0.07-0.01,0.11v0.9
		c0,8.28,6.72,15,15,15s15-6.72,15-15V30z"/>
	<path style="fill:#FAFAFA;" d="M69.1,73.2V87c0,0.55,0.45,1,1,1c0.31,0,0.61-0.15,0.8-0.4L93.5,60c0.5-0.7,1.8-4-0.8-4H76.1
		c-2.58,0.02-5.08,0.9-7.1,2.5c-0.52,0.42-0.98,0.88-1.4,1.4L53.3,73.8c-0.98,0.91-2.27,1.41-3.6,1.4H34.4
		c-2.73-0.02-5.04,2-5.4,4.7c-0.3,2.83,1.76,5.37,4.59,5.67c0.17,0.02,0.34,0.03,0.51,0.03h20.7c1.4-0.02,2.73-0.59,3.7-1.6l6.5-6.6
		C65,77.3,69.1,73.2,69.1,73.2z"/>
	<path style="fill:#FAFAFA;" d="M103.2,59.4c-0.18-0.17-0.38-0.3-0.6-0.4c-0.45-0.29-1.05-0.21-1.4,0.2L69.3,98.4
		c-0.33,0.44-0.24,1.07,0.2,1.4c0.17,0.13,0.38,0.2,0.6,0.2H97V73c0-0.55,0.45-1,1-1s1,0.45,1,1v33.8c-0.03,2.62,1.9,4.85,4.5,5.2
		c2.75,0.28,5.2-1.73,5.47-4.47c0.02-0.17,0.03-0.35,0.03-0.53V71.4C109.02,66.72,106.88,62.29,103.2,59.4z"/>
	<path style="fill:#FAFAFA;" d="M23.3,106v-3.4c0-0.5,0.4-0.9,0.9-0.9l0,0H60c0.55,0,1,0.45,1,1v3.3c0,3.31-2.69,6-6,6H29.3
		C25.99,112,23.3,109.31,23.3,106z"/>
	<path style="fill:#FAFAFA;" d="M22.4,101.7H19c-3.31,0-6-2.69-6-6V70c0-3.31,2.69-6,6-6h3.3c0.55,0,1,0.45,1,1v35.9
		C23.26,101.36,22.86,101.71,22.4,101.7z"/>
</g>
</svg>
